X: 24233
T: Lord Moira's Welcome To Scotland
R: strathspey
M: 4/4
K: Gmajor
|:G2BG BddB|cABG AGED|G2BG BddB|1 egfa gedB:|2 egfa g3d||
g2bg agfd|eage dBBd|g2bg agfd|egfa g3d|
g2bg agfd|ebge dBBA|GBBG BddB|egfa gedB||

